!!!OTL: Schöner Meie (2-73) S. 219
!!!id: P0946
**kern
*clefG2
*k[]
*G:
{8d
=1
4g
4a
4b
8b
8g
=2
4a
4a
4g}
8r
=3
{8a
=4
8.b
8a
16b
8cc
4dd
4dd
=5
4cc
8dd
8ee
4dd}
8r
=6
{8dd
=7
8gg
8dd
8dd
8cc
4.b
8ee
=8
8ee
8dd
8cc
8b
4a}
=9
{4dd
=10
4g
4a
8b
8cc
8dd
8cc
=11
4b
4a
4g}
8r
==
*-
!!!minrhy: 16
!!!meters: 4/4 ]  ZZ[4
!!!cut: Schöner Meie (2-73) S. 219
!!!reg: Lothringen
!!!trd: PINCK, Louis: Verklingende Weisen, Bd 2, Metz 1928
!!!rhy1: X_  X__X__X__X_X_  X__X__X__0_
!!!rhy2: X_  X_.X_XX_X__X__  X__X_X_X__0_
!!!key: P0946  16  G 4/4 ]  ZZ[4
!!!mod: SECHSTONSKALA DUR ?]  AMBITUS[11
!!!kad: 1521
!!!akz: 1321_3545_+1362_1331_
!!!fot: 'a__as"b__aw_
!!!for: 'a__b__c__d__
!!!fok: '^a_/__^d_Sd_
!! PHRAS[AUFTAKTIG]
!!!fkt: Fenstergang
!! LOTH VKL
!! PR[32] 2K[3] 2G[12] 3K[9] 3G[3] 4A[3] 4Ü[0] 5A[2] 6K[0] 6G[0]
!! 7K[0] 7G[0] 8A[0] MEHR[0] SI[32] ABS[65] SR[15] SP[17]
!! ST[17] 2k[9] 2g[9] 3k[8] 3g[9] 4d[0] 4ü[0] 5d[0] 6k[0] 6g[0]
!! 7k[0] 7g[0] 8d[0] mehr[0] si[35] dm[-3] sr[18] sp[17]
!! 1F[3] 2F[63] 3F[26] 4F[0] LF[0] 2P[0] 3P[8] 4P[0] TRI[0] DF[4] AB[72]
!! TF[0] U3K[0] U3[0] U4[0] U4Ü[0] U5[0] U6K[0] U6[0] U7K[0] U7[3]
!! N1[23] N2K[0] N2[24] N3K[0] N3[20] N4[9] N4Ü[0] N5[18] N6K[0] N6[3]
!!!n7k: 0] N7[0] O1[0] O2K[0] O2[0] O3K[0] O3[0] HÖ[0
